X:2336
T:Molly Borden (?)
C:Traditional
O:Isle of Man
Z:Collected by Mona Douglas 
B:Kiaull Vannin #336 
M:4/4 
L:1/4
K:G
D|G3/2A/ BA|G3 D|G3/2A/ BA|G3 B|e3/4 c// d3/4 c//|d>B d>B dG|A3/2c/ BA|G3 ||

